X:1
T: Lord Airley
C:Niel Gow
R:Reel
Q: 232
K:F
M:4/4
L:1/8
|:f|cF AF EG Gf|cF AF cF AF|Bd Ac GA Bd|cF AF CF Ff|
cF AF EG Gf|cF AF cF AF|Bd Ac GA Bd|cF AF CF Fc|
fc fa dg ga|fc fa cf AF|Bd Ac GA Bd|cF AF CF Fc|
fc fa dg ga|fc fa cf AF|Bd Ac GA Bd|cF AF CF F:|
